build/img/group-2.svg

<svg width="723" height="21" fill="none" xmlns="http://www.w3.org/2000/svg"><path d="M8 4V0L3 5l5 5V6c3.3 0 6 2.7 6 6s-2.7 6-6 6-6-2.7-6-6H0c0 4.4 3.6 8 8 8s8-3.6 8-8-3.6-8-8-8z" fill="#fff"/><path opacity=".2" fill="#fff" d="M58 10h540v3H58z"/><path fill-rule="evenodd" clip-rule="evenodd" d="M175.494 6.947a4.533 4.533 0 110 9.065 4.533 4.533 0 010-9.065z" fill="#fff"/><path d="M703 1v6h3V4h3V1h-6zm3 14h-3v6h6v-3h-3v-3zm14-14h-3v3h3v3h3V1h-3zm0 17h-3v3h6v-6h-3v3zM669 1h-26c-1.7 0-3 1.3-3 3v14c0 1.7 1.3 3 3 3h26c1.7 0 3-1.3 3-3V4c0-1.7-1.3-3-3-3zm-14.6 15.9c-.5.1-1.1.1-1.7.1-.7 0-1.4-.1-2-.3-.6-.2-1.2-.6-1.6-1-.4-.4-.8-1.1-1.1-1.9-.3-.8-.4-1.7-.4-2.8 0-1.1.2-2.1.5-2.9.3-.8.7-1.4 1.2-1.9s1.1-.8 1.7-1c.5-.1 1.2-.2 1.8-.2.7 0 1.2 0 1.7.1s.8.2 1.1.3l-.4 1.9-.9-.3H653c-.9 0-1.6.3-2.2 1-.6.7-.8 1.7-.8 3 0 .6.1 1.1.2 1.6s.3.9.6 1.3c.3.3.6.6 1 .8.4.2.9.3 1.4.3.5 0 .9 0 1.3-.1.3-.1.6-.2.9-.4l.5 1.8c-.5.3-1 .4-1.5.6zm8.7 0c-.5.1-1.1.1-1.7.1-.7 0-1.4-.1-2-.3-.6-.2-1.2-.6-1.6-1-.5-.5-.9-1.1-1.1-1.9-.3-.8-.4-1.7-.4-2.8 0-1.1.2-2.1.5-2.9.3-.8.7-1.4 1.2-1.9s1.1-.8 1.7-1c.5-.1 1.2-.2 1.8-.2.7 0 1.2 0 1.7.1s.8.2 1.1.3l-.4 1.9-.9-.3h-1.3c-.9 0-1.6.3-2.2 1-.6.7-.8 1.7-.8 3 0 .6.1 1.1.2 1.6s.3.9.6 1.3c.3.3.6.6 1 .8.4.2.9.3 1.4.3.5 0 .9 0 1.3-.1.3-.1.6-.2.9-.4l.5 1.8c-.5.3-1 .4-1.5.6z" fill="#fff"/></svg>

<svg width="723" height="21" viewBox="0 0 723 21" fill="none" xmlns="http://www.w3.org/2000/svg">
<path d="M8 4V0L3 5L8 10V6C11.3 6 14 8.7 14 12C14 15.3 11.3 18 8 18C4.7 18 2 15.3 2 12H0C0 16.4 3.6 20 8 20C12.4 20 16 16.4 16 12C16 7.6 12.4 4 8 4Z" fill="white"/>
<rect opacity="0.2" x="58" y="10" width="540" height="3" fill="white"/>
<path fill-rule="evenodd" clip-rule="evenodd" d="M175.494 6.94697C177.998 6.94697 180.027 8.97651 180.027 11.4802C180.027 13.9839 177.998 16.0136 175.494 16.0136C172.99 16.0136 170.961 13.9839 170.961 11.4802C170.961 8.97651 172.99 6.94697 175.494 6.94697Z" fill="white"/>
<path d="M703 1V4V7H706V4H709V1H706H703Z" fill="white"/>
<path d="M706 15H703V18V21H706H709V18H706V15Z" fill="white"/>
<path d="M720 1H717V4H720V7H723V4V1H720Z" fill="white"/>
<path d="M720 18H717V21H720H723V18V15H720V18Z" fill="white"/>
<path d="M669 1H643C641.3 1 640 2.3 640 4V18C640 19.7 641.3 21 643 21H669C670.7 21 672 19.7 672 18V4C672 2.3 670.7 1 669 1ZM654.4 16.9C653.9 17 653.3 17 652.7 17C652 17 651.3 16.9 650.7 16.7C650.1 16.5 649.5 16.1 649.1 15.7C648.7 15.3 648.3 14.6 648 13.8C647.7 13 647.6 12.1 647.6 11C647.6 9.9 647.8 8.9 648.1 8.1C648.4 7.3 648.8 6.7 649.3 6.2C649.8 5.7 650.4 5.4 651 5.2C651.5 5.1 652.2 5 652.8 5C653.5 5 654 5 654.5 5.1C655 5.2 655.3 5.3 655.6 5.4L655.2 7.3C654.9 7.2 654.6 7.1 654.3 7C653.9 7 653.5 7 653 7C652.1 7 651.4 7.3 650.8 8C650.2 8.7 650 9.7 650 11C650 11.6 650.1 12.1 650.2 12.6C650.3 13.1 650.5 13.5 650.8 13.9C651.1 14.2 651.4 14.5 651.8 14.7C652.2 14.9 652.7 15 653.2 15C653.7 15 654.1 15 654.5 14.9C654.8 14.8 655.1 14.7 655.4 14.5L655.9 16.3C655.4 16.6 654.9 16.7 654.4 16.9ZM663.1 16.9C662.6 17 662 17 661.4 17C660.7 17 660 16.9 659.4 16.7C658.8 16.5 658.2 16.1 657.8 15.7C657.3 15.2 656.9 14.6 656.7 13.8C656.4 13 656.3 12.1 656.3 11C656.3 9.9 656.5 8.9 656.8 8.1C657.1 7.3 657.5 6.7 658 6.2C658.5 5.7 659.1 5.4 659.7 5.2C660.2 5.1 660.9 5 661.5 5C662.2 5 662.7 5 663.2 5.1C663.7 5.2 664 5.3 664.3 5.4L663.9 7.3C663.6 7.2 663.3 7.1 663 7C662.6 7 662.2 7 661.7 7C660.8 7 660.1 7.3 659.5 8C658.9 8.7 658.7 9.7 658.7 11C658.7 11.6 658.8 12.1 658.9 12.6C659 13.1 659.2 13.5 659.5 13.9C659.8 14.2 660.1 14.5 660.5 14.7C660.9 14.9 661.4 15 661.9 15C662.4 15 662.8 15 663.2 14.9C663.5 14.8 663.8 14.7 664.1 14.5L664.6 16.3C664.1 16.6 663.6 16.7 663.1 16.9Z" fill="white"/>
</svg>
